svg/ev_plug_tesla.svg

<svg xmlns="http://www.w3.org/2000/svg" viewBox="0 0 24 24"><path d="M6 9c0-.55.45-1 1-1s1 .45 1 1-.45 1-1 1-1-.45-1-1m11 1c.55 0 1-.45 1-1s-.45-1-1-1-1 .45-1 1 .45 1 1 1m5-.07V11a9 9 0 0 1-9 9h-2c-4.97 0-9-4-9-9V9.93C2 6.65 4.65 4 7.93 4h8.14C19.35 4 22 6.65 22 9.93M14.5 9a2.5 2.5 0 0 0 5 0 2.5 2.5 0 0 0-5 0m-10 0a2.5 2.5 0 0 0 5 0 2.5 2.5 0 0 0-5 0M9 17c0-.55-.45-1-1-1s-1 .45-1 1 .45 1 1 1 1-.45 1-1m4.5 0c0-.83-.67-1.5-1.5-1.5s-1.5.67-1.5 1.5.67 1.5 1.5 1.5 1.5-.67 1.5-1.5m3.5 0c0-.55-.45-1-1-1s-1 .45-1 1 .45 1 1 1 1-.45 1-1m2.97-5.34C19.23 12.5 18.18 13 17 13c-2.21 0-4-1.79-4-4 0-1.2.54-2.27 1.38-3H9.62c.84.73 1.38 1.8 1.38 3 0 2.21-1.79 4-4 4a3.9 3.9 0 0 1-2.97-1.34c.16 1.66.9 3.16 2.01 4.28C7.71 14.73 9.76 14 12 14s4.29.73 5.96 1.94a7.04 7.04 0 0 0 2.01-4.28"/></svg>

<?xml version="1.0" encoding="UTF-8"?><!DOCTYPE svg PUBLIC "-//W3C//DTD SVG 1.1//EN" "http://www.w3.org/Graphics/SVG/1.1/DTD/svg11.dtd"><svg xmlns="http://www.w3.org/2000/svg" xmlns:xlink="http://www.w3.org/1999/xlink" version="1.1" id="mdi-ev-plug-tesla" width="24" height="24" viewBox="0 0 24 24"><path d="M6 9C6 8.45 6.45 8 7 8S8 8.45 8 9 7.55 10 7 10 6 9.55 6 9M17 10C17.55 10 18 9.55 18 9S17.55 8 17 8 16 8.45 16 9 16.45 10 17 10M22 9.93V11C22 15.97 17.97 20 13 20H11C6.03 20 2 16 2 11V9.93C2 6.65 4.65 4 7.93 4H16.07C19.35 4 22 6.65 22 9.93M14.5 9C14.5 10.38 15.62 11.5 17 11.5S19.5 10.38 19.5 9 18.38 6.5 17 6.5 14.5 7.62 14.5 9M4.5 9C4.5 10.38 5.62 11.5 7 11.5S9.5 10.38 9.5 9 8.38 6.5 7 6.5 4.5 7.62 4.5 9M9 17C9 16.45 8.55 16 8 16S7 16.45 7 17 7.45 18 8 18 9 17.55 9 17M13.5 17C13.5 16.17 12.83 15.5 12 15.5S10.5 16.17 10.5 17 11.17 18.5 12 18.5 13.5 17.83 13.5 17M17 17C17 16.45 16.55 16 16 16S15 16.45 15 17 15.45 18 16 18 17 17.55 17 17M19.97 11.66C19.23 12.5 18.18 13 17 13C14.79 13 13 11.21 13 9C13 7.8 13.54 6.73 14.38 6H9.62C10.46 6.73 11 7.8 11 9C11 11.21 9.21 13 7 13C5.82 13 4.76 12.5 4.03 11.66C4.19 13.32 4.93 14.82 6.04 15.94C7.71 14.73 9.76 14 12 14C14.24 14 16.29 14.73 17.96 15.94C19.07 14.82 19.81 13.32 19.97 11.66Z" /></svg>
